assets/images/icons/icon-facebook.svg

<svg height="48" viewBox="0 0 48 48" width="48" xmlns="http://www.w3.org/2000/svg"><path d="m24 1.06a23 23 0 0 0 -4.45 45.56v-17.1h-4.63v-6.32h4.63v-5.39c0-4.24 2.75-8.13 9.06-8.13a37.55 37.55 0 0 1 4.44.25l-.15 5.89s-1.92 0-4 0c-2.27 0-2.64 1.05-2.64 2.79v4.59h6.85l-.3 6.32h-6.58v17.42a23 23 0 0 0 -2.23-45.88z"/></svg>

<svg xmlns="http://www.w3.org/2000/svg" width="48" height="48" viewBox="0 0 48 48"><title>icon-facebook</title><path d="M24,1.06a23,23,0,0,0-4.45,45.56V29.52H14.92V23.2h4.63V17.81c0-4.24,2.75-8.13,9.06-8.13a37.55,37.55,0,0,1,4.44.25l-.15,5.89s-1.92,0-4,0c-2.27,0-2.64,1.05-2.64,2.79V23.2h6.85l-.3,6.32H26.23V46.94A23,23,0,0,0,24,1.06Z"/></svg>
